X:08
T:Royal Quick Step,The. TJD.08
T:Boys and Girls Come Out to Play,aka TJD.08
M:6/8
L:1/8
Q:1/4=120
S:T.J.Dixon MS1, Lincolnshire, 1798
R:quick step
N:First d changed from crotchet to quaver
A:Lincolnshire, Holton le Moor
Z:vmp.R.Greig2010
K:G
d|B2gc2e|d2BA2B|(ABA)c2A|”^all crotchets in MS”d2BG2d|!
B2gc2e|d2BA2B|AcB AGF|G3G3:|!
|:d|gag fef|gfe def|gag fef|(g3g2)d|!
gag fef|gfe def|gag fef|g3 g2:|

